apps/statesvisited/state-images/NH.svg

<svg height="635" width="1182" xmlns="http://www.w3.org/2000/svg"><path d="m898.17942 147.55638s-1.7818-4.15752-1.1878-5.34539c.5939-1.18786-3.8606-1.18786-5.3454-4.15752s-11.2847-37.12077-11.2847-37.12077l-4.4545-.59393-3.5636 8.31505s5.6423 6.53325 5.0484 9.20595c-.5939 2.67269-3.5636 5.93932-4.1575 8.01809-.5939 2.07876-2.3757 31.18144-2.3757 31.18144s20.1937-2.07876 21.3815-3.56359c1.1879-1.48483 6.8302-5.64236 5.9393-5.93933z" fill="#20639b" fill-rule="evenodd" opacity=".9" stroke="#000"/></svg>

<?xml version="1.0" encoding="UTF-8" standalone="no"?>
<!-- Created with Inkscape (http://www.inkscape.org/) -->
<svg
   xmlns:dc="http://purl.org/dc/elements/1.1/"
   xmlns:cc="http://web.resource.org/cc/"
   xmlns:rdf="http://www.w3.org/1999/02/22-rdf-syntax-ns#"
   xmlns:svg="http://www.w3.org/2000/svg"
   xmlns="http://www.w3.org/2000/svg"
   xmlns:xlink="http://www.w3.org/1999/xlink"
   xmlns:sodipodi="http://sodipodi.sourceforge.net/DTD/sodipodi-0.dtd"
   xmlns:inkscape="http://www.inkscape.org/namespaces/inkscape"
   id="svg1923"
   sodipodi:version="0.32"
   inkscape:version="0.44"
   width="1182"
   height="635"
   version="1.0"
   sodipodi:docbase="/Users/amyshore/Desktop"
   sodipodi:docname="usa.svg">
  <metadata
     id="metadata1928">
    <rdf:RDF>
      <cc:Work
         rdf:about="">
        <dc:format>image/svg+xml</dc:format>
        <dc:type
           rdf:resource="http://purl.org/dc/dcmitype/StillImage" />
      </cc:Work>
    </rdf:RDF>
  </metadata>
  <defs
     id="defs1926" />
  <sodipodi:namedview
     inkscape:window-height="752"
     inkscape:window-width="1280"
     inkscape:pageshadow="2"
     inkscape:pageopacity="0.0"
     guidetolerance="10.0"
     gridtolerance="10.0"
     objecttolerance="10.0"
     borderopacity="1.0"
     bordercolor="#666666"
     pagecolor="#ffffff"
     id="base"
     inkscape:zoom="0.59527559"
     inkscape:cx="775.234"
     inkscape:cy="319.32597"
     inkscape:window-x="0"
     inkscape:window-y="22"
     inkscape:current-layer="layer2" />
  <g
     inkscape:groupmode="layer"
     id="layer1"
     inkscape:label="bg"
     style="opacity:1;display:none"
     sodipodi:insensitive="true">
    <image
       xlink:href="ElectoralCollege1996-Large.png"
       sodipodi:absref="/Users/amyshore/Desktop/ElectoralCollege1996-Large.png"
       width="1182"
       height="635"
       id="image1930"
       x="-1.3571358"
       y="1.6798911" />
  </g>
  <g
     inkscape:groupmode="layer"
     id="layer2"
     inkscape:label="vector"
     style="opacity:0.9;display:inline"> <path style="fill:#20639B;fill-opacity:1;fill-rule:evenodd;stroke:black;stroke-width:1px;stroke-linecap:butt;stroke-linejoin:miter;stroke-opacity:1" d="M 898.17942,147.55638 C 898.17942,147.55638 896.39762,143.39886 896.99162,142.21099 C 897.58552,141.02313 893.13102,141.02313 891.64622,138.05347 C 890.16142,135.08381 880.36152,100.9327 880.36152,100.9327 L 875.90702,100.33877 L 872.34342,108.65382 C 872.34342,108.65382 877.98572,115.18707 877.39182,117.85977 C 876.79792,120.53246 873.82822,123.79909 873.23432,125.87786 C 872.64042,127.95662 870.85862,157.0593 870.85862,157.0593 C 870.85862,157.0593 891.05232,154.98054 892.24012,153.49571 C 893.42802,152.01088 899.07032,147.85335 898.17942,147.55638 z " id="path12586" />   </g>
</svg>
